X:151
T:The Dancing Piper
M:6/8
L:1/8
Q:120
C:Trad. arr. J.T.
S:Davidsons Musical Miracles 1859
R:Jig
N:Tune slightly compressed
K:D
D2 D FGA | E2 E GAB | FGA ABc | d2 B B2 c | d2 D FGA|
E2 E GAB|FGA ABc|dDD D3:||:FED A2G|FED A2F|GAB Bcd|E2c cBc|d2D FGA|
E2E GAB|FGA ABc|dDD D3:||
